X:71
T: Die Koenigskinder
N: Q0020N
O: Mitteleuropa, Deutschland (BRD) , Rheinprovinz
R: Ballade, Liebe, Trennung, Tod
M: 2/4
L: 1/16
K: G
D2 | G3GB3G | G2F2F2
D2 | A2AAc2AA | G4z2
GB | d2ddd2cc | B4dc
BA | G2GGBAGA | B4
A4 | B2dddcBA | G4z2

